X:1
T: Black Head Bay
C:Bruce Shawyer
R:Strathspey
Q:128
K:Em
M:4/4
L:1/16
|:EE3 B4 B3A B4|DD3 A4 A3G FD3|EE3 B4 B3A B4|BB3 fB3 E4 E4|
BB3 e4 e3f g4|f3e d3B A3G FD3|BB3 e4 e3f g4|f3e ^df3 e4e4|
ee3 e4 g3a b4|b4 b3a fB3 B4|cc3 e4 d3B G4|AA3 A3A d4d4|
ee3 e4 g3a b4|f3e d3B A3G FD3|cc3 e4 d3B G4|BB3 fB3 E4E4:|
